X: 1
T:Variation V
K:A
c2c c2c | d2c d2c | d2c | d3 | d2 d2 | d2 d2 | d2 d2 | d2 d2 | d2 | d2 | d


*****************************


600 4 1.9251578 

<star>X92
M:2/4
L:1/8
K:G
B2 Bd|e2 d2|B2 B2|B2 B2|B2 B2|B2 B2|B2 B2|B2 B2|B2 B2|B4:|
<end>
<start>
